icon-themes/breeze_svg/cmd/sc_aligntop.svg

<svg viewBox="0 0 16 16" xmlns="http://www.w3.org/2000/svg"><path d="m2 2v1h12v-1zm6 2-1 1-2 2h2v7h2v-7h2l-2-2z" fill="#4d4d4d"/></svg>

<svg xmlns="http://www.w3.org/2000/svg" viewBox="0 0 16 16">
 <path 
     style="fill:#4d4d4d" 
     d="M 2 2 L 2 3 L 14 3 L 14 2 L 2 2 z M 8 4 L 7 5 L 5 7 L 7 7 L 7 14 L 9 14 L 9 7 L 11 7 L 9 5 L 8 4 z "
     />
</svg>
